dist/svg/email-arrow-o.svg

<!-- Generated by Trend Micro Style Portal -->
<svg version="1.1" xmlns="http://www.w3.org/2000/svg" width="16" height="16" viewBox="0 0 16 16">
  <title>email-arrow-o</title>
  <path fill="rgb(34,34,34)" d="M12 8l4 4-4 4v-3h-4v-2h4v-3zM16 3v7h-1v-4.76l-7 4.76-7-4.76v7.76h6v1h-6c-0.552 0-1-0.448-1-1v0-10c0-0.552 0.448-1 1-1v0h14c0.552 0 1 0.448 1 1v0zM15 4v-1h-14v1l7 4.75z"></path>
</svg>

<svg width="16" height="16" viewBox="0 0 16 16" fill="rgb(34, 34, 34)" xmlns="http://www.w3.org/2000/svg"><title>email-arrow-o</title><path d="M12 8L16 12L12 16V13H8V11H12V8ZM16 3V10H15V5.24L8 10L1 5.24V13H7V14H1C0.448 14 0 13.552 0 13V3C0 2.448 0.448 2 1 2H15C15.552 2 16 2.448 16 3ZM15 4V3H1V4L8 8.75L15 4Z" fill="rgb(34, 34, 34)" fill-opacity="1.00"/></svg>
